X: 15926
T: Grandfather's Thought
R: hornpipe
M: 4/4
K: Gmajor
|:g>f|e>d .B>e .d>.B A2|(3cBA d>A B>G E>F|
G2(3AGF G>A B>c|d>B .e>d B2 g>f|
e>d .B>e .d>.B A2|(3cBA d>A B>G E>G|
(3FGA F>D (3EFG F>A|1 G>B A>F G2:|2 G>B A>F G2>A||
(3Bcd e>f g>e a>f|g>f e>d B>A B>d|
(3efg f>a g>f e>d|(3efg f>a g>f .g>d|
(3.gab .g>d (3.fga .f>d|(3.efg .d>c (3.Bcd .B>G|
3FGA F>D (3EFG F>A|1 G>B A>F G2>A:|2 G>B A>F G2||

